Origami/24x24/apps/bibletime.svg

<svg width="24" height="24" version="1.1" viewBox="0 0 24 24" xmlns="http://www.w3.org/2000/svg">
 <path d="M 5.0909094,2.5000013 C 4.4865455,2.5000013 4,2.9778584 4,3.5714298 V 21.428572 C 4,22.022143 4.4865455,22.5 5.0909094,22.5 H 18.909091 C 19.513454,22.5 20,22.022143 20,21.428572 V 3.5714298 C 20,2.9778584 19.513454,2.5000013 18.909091,2.5000013 Z" style="opacity:.2"/>
 <path d="M 5.0909094,2.0000013 C 4.4865455,2.0000013 4,2.4778585 4,3.0714298 V 20.928572 C 4,21.522143 4.4865455,22 5.0909094,22 H 18.909091 C 19.513454,22 20,21.522143 20,20.928572 V 3.0714298 C 20,2.4778585 19.513454,2.0000013 18.909091,2.0000013 Z" style="fill:#3d65c2"/>
 <path d="M 5.0909094,2.0000013 C 4.4865455,2.0000013 4,2.4778585 4,3.0714298 V 20.928572 C 4,21.522143 4.4865455,22 5.0909094,22 H 7.0000002 V 2.0000013 Z" style="opacity:.2"/>
 <path d="m12 5.5v3h-3v3h3v8h3v-8h3v-3h-3v-3z" style="opacity:.2"/>
 <rect x="12" y="5" width="3" height="14" style="fill:#ffd972"/>
 <rect transform="rotate(90)" x="8" y="-18" width="3" height="9" style="fill:#ffd972"/>
 <path d="m5.0908209 2.0000012c-0.6043641 0-1.0908205 0.4777177-1.0908205 1.071289v0.5c0-0.5935714 0.4864564-1.071289 1.0908205-1.071289h13.818358c0.604363 0 1.09082 0.4777176 1.09082 1.071289v-0.5c0-0.5935713-0.486457-1.071289-1.09082-1.071289z" style="fill:#ffffff;opacity:.1"/>
 <circle cx="18.5" cy="18.5" r="5.5" style="fill:#ff982d"/>
 <path d="m18.5 15a3.5 3.5 0 0 0 -3.5 3.5 3.5 3.5 0 0 0 3.5 3.5 3.5 3.5 0 0 0 3.5 -3.5 3.5 3.5 0 0 0 -3.5 -3.5zm0 1a2.5 2.5 0 0 1 2.5 2.5 2.5 2.5 0 0 1 -2.5 2.5 2.5 2.5 0 0 1 -2.5 -2.5 2.5 2.5 0 0 1 2.5 -2.5zm-0.5 0.5v2.5h2.5v-1h-1.5v-1.5z" style="fill:#ffffff"/>
</svg>

<svg xmlns="http://www.w3.org/2000/svg" width="24" height="24" version="1.1" viewBox="0 0 24 24">
 <g>
  <path style="opacity:0.2" d="M 5.0909094,2.5000013 C 4.4865455,2.5000013 4,2.9778584 4,3.5714298 V 21.428572 C 4,22.022143 4.4865455,22.5 5.0909094,22.5 H 18.909091 C 19.513454,22.5 20,22.022143 20,21.428572 V 3.5714298 C 20,2.9778584 19.513454,2.5000013 18.909091,2.5000013 Z"/>
  <path style="fill:#3d65c2" d="M 5.0909094,2.0000013 C 4.4865455,2.0000013 4,2.4778585 4,3.0714298 V 20.928572 C 4,21.522143 4.4865455,22 5.0909094,22 H 18.909091 C 19.513454,22 20,21.522143 20,20.928572 V 3.0714298 C 20,2.4778585 19.513454,2.0000013 18.909091,2.0000013 Z"/>
  <path style="opacity:0.2" d="M 5.0909094,2.0000013 C 4.4865455,2.0000013 4,2.4778585 4,3.0714298 V 20.928572 C 4,21.522143 4.4865455,22 5.0909094,22 H 7.0000002 V 2.0000013 Z"/>
  <path style="opacity:0.2" d="m 12,5.5 v 3 H 9 v 3 h 3 v 8 h 3 v -8 h 3 v -3 h -3 v -3 z"/>
  <rect style="fill:#ffd972" width="3" height="14" x="12" y="5"/>
  <rect style="fill:#ffd972" width="3" height="9" x="8" y="-18" transform="rotate(90)"/>
  <path style="opacity:0.1;fill:#ffffff" d="m 5.0908209,2.0000012 c -0.6043641,0 -1.0908205,0.4777177 -1.0908205,1.071289 v 0.5 c 0,-0.5935714 0.4864564,-1.071289 1.0908205,-1.071289 H 18.909179 c 0.604363,0 1.09082,0.4777176 1.09082,1.071289 v -0.5 c 0,-0.5935713 -0.486457,-1.071289 -1.09082,-1.071289 z"/>
  <circle style="fill:#ff982d" cx="18.5" cy="18.5" r="5.5"/>
  <path style="fill:#ffffff" d="M 18.5,15 A 3.5,3.5 0 0 0 15,18.5 3.5,3.5 0 0 0 18.5,22 3.5,3.5 0 0 0 22,18.5 3.5,3.5 0 0 0 18.5,15 Z m 0,1 A 2.5,2.5 0 0 1 21,18.5 2.5,2.5 0 0 1 18.5,21 2.5,2.5 0 0 1 16,18.5 2.5,2.5 0 0 1 18.5,16 Z M 18,16.5 V 18 18.5 19 h 2.5 V 18 H 19 v -1.5 z"/>
 </g>
</svg>
